src/images/pages/cashier/litecoin-icon.svg

<svg width="72" height="45" viewBox="0 0 72 45" fill="none" xmlns="http://www.w3.org/2000/svg">
<path d="M15.7919 14.625C14.2257 14.625 12.6947 15.0894 11.3924 15.9596C10.0902 16.8297 9.0752 18.0665 8.47584 19.5134C7.87648 20.9604 7.71966 22.5527 8.02521 24.0888C8.33076 25.6249 9.08496 27.0359 10.1924 28.1433C11.2999 29.2508 12.7109 30.005 14.247 30.3106C15.7831 30.6161 17.3754 30.4593 18.8223 29.8599C20.2693 29.2606 21.5061 28.2456 22.3762 26.9434C23.2463 25.6411 23.7108 24.1101 23.7108 22.5439C23.7108 21.5039 23.506 20.4742 23.108 19.5134C22.71 18.5527 22.1267 17.6797 21.3914 16.9444C20.6561 16.209 19.7831 15.6257 18.8223 15.2278C17.8616 14.8298 16.8318 14.625 15.7919 14.625V14.625ZM15.9203 22.8044L15.0966 25.5838H19.5023C19.5374 25.5839 19.5719 25.5922 19.6032 25.6079C19.6345 25.6236 19.6617 25.6464 19.6827 25.6744C19.7037 25.7025 19.7179 25.735 19.7242 25.7695C19.7304 25.804 19.7286 25.8394 19.7188 25.8731L19.3357 27.1929C19.3174 27.2559 19.2791 27.3113 19.2266 27.3507C19.1741 27.3901 19.1102 27.4114 19.0445 27.4113H12.3152L13.453 23.5687L12.1945 23.9518L12.4723 23.0534L13.7327 22.6703L15.3303 17.2723C15.3478 17.209 15.3856 17.1533 15.4378 17.1135C15.4901 17.0737 15.5539 17.0521 15.6195 17.052H17.3244C17.3593 17.0519 17.3939 17.0599 17.4252 17.0754C17.4566 17.0908 17.484 17.1134 17.5051 17.1413C17.5263 17.1691 17.5407 17.2015 17.5472 17.2359C17.5538 17.2702 17.5522 17.3057 17.5427 17.3393L16.2018 21.9041L17.4604 21.521L17.1903 22.4347L15.9203 22.8044Z" fill="#A5A8A9"/>
<path d="M30.8432 16.9646C30.9621 16.9528 31.0818 16.9766 31.1871 17.0329C31.3278 17.1081 31.433 17.236 31.4797 17.3886C31.5264 17.5411 31.5107 17.706 31.4362 17.847C31.3803 17.9526 31.2944 18.0393 31.1893 18.0961C31.0842 18.1528 30.9646 18.1771 30.8456 18.1658C30.7267 18.1545 30.6138 18.1081 30.5213 18.0326C30.4287 17.9571 30.3606 17.8558 30.3257 17.7416C30.2907 17.6273 30.2905 17.5053 30.325 17.3909C30.3595 17.2765 30.4271 17.175 30.5194 17.0991C30.6116 17.0232 30.7243 16.9764 30.8432 16.9646Z" fill="#4D4D4E"/>
<path d="M27.7967 17.0291H28.2909C28.3867 17.0291 28.4441 17.0712 28.4288 17.1823L27.1435 27.2677C27.1437 27.289 27.1393 27.31 27.1306 27.3295C27.1219 27.3489 27.1091 27.3662 27.0931 27.3802C27.0771 27.3942 27.0582 27.4046 27.0378 27.4106C27.0174 27.4167 26.996 27.4182 26.9749 27.4152H26.4845C26.383 27.4152 26.3504 27.3635 26.3619 27.2677L27.63 17.1785C27.631 17.1577 27.6361 17.1373 27.645 17.1185C27.654 17.0997 27.6666 17.0828 27.6821 17.0689C27.6976 17.055 27.7157 17.0443 27.7354 17.0375C27.7551 17.0307 27.7759 17.0278 27.7967 17.0291Z" fill="#4D4D4E"/>
<path d="M30.3731 19.9369H30.8616C30.9689 19.9369 31.0014 19.9886 30.9976 20.0882L30.0954 27.2677C30.0948 27.2896 30.0896 27.3111 30.08 27.3309C30.0705 27.3506 30.0568 27.368 30.0399 27.382C30.023 27.396 30.0033 27.4062 29.9822 27.4119C29.961 27.4176 29.9388 27.4187 29.9172 27.4152H29.4268C29.3349 27.4152 29.2774 27.3654 29.2889 27.2677L30.2045 20.0844C30.2052 20.0634 30.2102 20.0428 30.2192 20.0238C30.2282 20.0048 30.241 19.9879 30.2568 19.974C30.2726 19.9602 30.2911 19.9498 30.3111 19.9434C30.3311 19.937 30.3522 19.9348 30.3731 19.9369Z" fill="#4D4D4E"/>
<path fill-rule="evenodd" clip-rule="evenodd" d="M52.3827 19.8181C51.7484 19.8036 51.1281 20.0058 50.6242 20.3913C50.1203 20.7768 49.7629 21.3226 49.6109 21.9386C49.4745 22.5105 49.3728 23.09 49.3064 23.6741C49.2278 24.2496 49.1817 24.829 49.1685 25.4096C49.162 25.693 49.2128 25.9748 49.3178 26.2381C49.4228 26.5014 49.5798 26.7408 49.7795 26.942C50.1779 27.3252 50.7239 27.5167 51.4173 27.5167C52.0524 27.5311 52.6734 27.3284 53.1777 26.942C53.6749 26.5599 54.0264 26.0191 54.1738 25.4096C54.3121 24.8382 54.4138 24.2585 54.4783 23.6741C54.5562 23.0935 54.6016 22.509 54.6143 21.9233C54.6272 21.6398 54.5802 21.3568 54.4762 21.0927C54.3722 20.8286 54.2137 20.5895 54.011 20.3909C53.5651 19.9925 52.9798 19.7866 52.3827 19.8181ZM53.7677 22.9769C53.7217 23.3427 53.693 23.5764 53.6834 23.6741C53.5914 24.4154 53.5091 24.946 53.4382 25.2621C53.3428 25.7146 53.0946 26.1204 52.7352 26.4114C52.3845 26.6955 51.9452 26.8474 51.4939 26.8405C51.2885 26.8542 51.0826 26.824 50.8898 26.752C50.6969 26.68 50.5216 26.5678 50.3754 26.4229C50.2292 26.278 50.1155 26.1036 50.0419 25.9114C49.9682 25.7192 49.9362 25.5136 49.9481 25.3081C49.9524 25.0005 49.9755 24.6934 50.017 24.3886C50.063 24.0228 50.0917 23.791 50.1013 23.6914C50.1933 22.9807 50.2756 22.4501 50.3465 22.1053C50.4426 21.6531 50.6907 21.2475 51.0495 20.956C51.4007 20.6727 51.8397 20.521 52.2908 20.5269C52.4962 20.5132 52.7021 20.5434 52.895 20.6154C53.0878 20.6874 53.2631 20.7996 53.4093 20.9445C53.5555 21.0894 53.6692 21.2637 53.7428 21.4559C53.8165 21.6482 53.8485 21.8538 53.8366 22.0593C53.8322 22.3663 53.8092 22.6727 53.7677 22.9769Z" fill="#4D4D4E"/>
<path d="M56.9341 19.9369H57.4225C57.5183 19.9369 57.5585 19.9886 57.5451 20.0844L56.6429 27.2677C56.642 27.2886 56.6368 27.3091 56.6277 27.3279C56.6186 27.3468 56.6058 27.3636 56.5901 27.3774C56.5743 27.3912 56.556 27.4016 56.5361 27.4081C56.5162 27.4146 56.4952 27.417 56.4743 27.4152H55.984C55.892 27.4152 55.8326 27.3711 55.846 27.2677L56.7655 20.0844C56.7685 20.0425 56.7878 20.0035 56.8194 19.9759C56.851 19.9483 56.8922 19.9343 56.9341 19.9369Z" fill="#4D4D4E"/>
<path d="M63.6173 20.3602C63.2802 20.0078 62.807 19.8335 62.1941 19.8335C61.8146 19.8294 61.4388 19.9078 61.0926 20.0633C60.7537 20.2183 60.4587 20.4553 60.2345 20.7529C60.1942 20.7912 60.1732 20.7816 60.1732 20.7223L60.2498 20.0844C60.2613 19.9944 60.2211 19.9369 60.1272 19.9369H59.6387C59.6179 19.9351 59.5969 19.9375 59.577 19.944C59.5571 19.9505 59.5387 19.9609 59.523 19.9747C59.5072 19.9885 59.4944 20.0053 59.4854 20.0241C59.4763 20.043 59.4711 20.0635 59.4702 20.0844L58.5679 27.2677C58.5564 27.3615 58.589 27.4152 58.6905 27.4152H59.1809C59.2017 27.4167 59.2226 27.4142 59.2424 27.4076C59.2622 27.401 59.2804 27.3905 59.2961 27.3768C59.3118 27.363 59.3246 27.3463 59.3338 27.3276C59.3429 27.3089 59.3483 27.2885 59.3495 27.2677L60.0065 22.1206C60.1001 21.6743 60.3369 21.2707 60.6808 20.9713C61.0166 20.6795 61.4486 20.5226 61.8933 20.5307C62.0857 20.5225 62.2776 20.5553 62.4562 20.627C62.6349 20.6986 62.7963 20.8075 62.9296 20.9464C63.198 21.2492 63.3357 21.6458 63.3127 22.0497C63.3149 22.1591 63.3098 22.2686 63.2974 22.3773L62.671 27.2677C62.6666 27.2855 62.6664 27.3042 62.6704 27.3221C62.6743 27.3401 62.6824 27.3568 62.694 27.3711C62.7087 27.3865 62.7267 27.3985 62.7465 27.4061C62.7664 27.4137 62.7877 27.4168 62.809 27.4152H63.2974C63.3183 27.417 63.3393 27.4146 63.3592 27.4081C63.3791 27.4016 63.3974 27.3912 63.4132 27.3774C63.4289 27.3636 63.4417 27.3468 63.4508 27.3279C63.4599 27.3091 63.465 27.2886 63.466 27.2677L64.0943 22.2547C64.1154 22.0631 64.1249 21.908 64.1249 21.8103C64.1402 21.5471 64.1032 21.2834 64.0161 21.0345C63.929 20.7856 63.7934 20.5565 63.6173 20.3602Z" fill="#4D4D4E"/>
<path d="M57.773 17.0329C57.6673 16.9775 57.5475 16.9548 57.4288 16.9675C57.3101 16.9802 57.1979 17.0278 57.1063 17.1043C57.0147 17.1808 56.9478 17.2828 56.9141 17.3973C56.8805 17.5118 56.8815 17.6337 56.9172 17.7477C56.9528 17.8616 57.0215 17.9623 57.1144 18.0372C57.2073 18.1121 57.3204 18.1578 57.4393 18.1684C57.5582 18.1791 57.6775 18.1542 57.7823 18.097C57.887 18.0398 57.9725 17.9528 58.0278 17.847C58.1019 17.7053 58.1167 17.5399 58.0689 17.3872C58.0211 17.2346 57.9147 17.1071 57.773 17.0329Z" fill="#4D4D4E"/>
<path d="M44.2071 20.4043C44.7142 20.0111 45.3412 19.8041 45.9828 19.8181C46.5795 19.7835 47.1656 19.9867 47.6129 20.3832C47.8163 20.5814 47.9753 20.8205 48.0797 21.0846C48.184 21.3487 48.2312 21.632 48.2182 21.9156V22.09C48.2182 22.1017 48.2159 22.1133 48.2113 22.1241C48.2068 22.1349 48.2001 22.1447 48.1917 22.153C48.1833 22.1612 48.1734 22.1676 48.1625 22.1719C48.1516 22.1762 48.1399 22.1783 48.1282 22.1781H47.5535C47.5383 22.1781 47.5233 22.175 47.5094 22.1691C47.4954 22.1632 47.4828 22.1545 47.4722 22.1436C47.4617 22.1327 47.4534 22.1198 47.448 22.1057C47.4425 22.0915 47.44 22.0764 47.4405 22.0612V22.0497C47.4524 21.8441 47.4204 21.6382 47.3466 21.4459C47.2728 21.2535 47.1589 21.0791 47.0125 20.9342C46.8661 20.7892 46.6906 20.6771 46.4975 20.6052C46.3044 20.5333 46.0983 20.5034 45.8927 20.5173C45.4422 20.5113 45.0038 20.6631 44.6534 20.9464C44.2954 21.2405 44.0498 21.6492 43.958 22.1034C43.8852 22.4482 43.8048 22.9788 43.7128 23.6894C43.7013 23.7891 43.6669 24.0821 43.6286 24.3867C43.587 24.6915 43.5639 24.9986 43.5596 25.3062C43.5477 25.5117 43.5797 25.7173 43.6534 25.9095C43.7271 26.1017 43.8408 26.2761 43.9869 26.421C44.1331 26.5659 44.3084 26.6781 44.5013 26.7501C44.6941 26.8221 44.9001 26.8523 45.1054 26.8386C45.5562 26.8459 45.995 26.6939 46.3448 26.4095C46.7046 26.1186 46.9535 25.7128 47.0497 25.2602C47.0489 25.2506 47.0489 25.241 47.0497 25.2315C47.0549 25.2107 47.0671 25.1924 47.0842 25.1795C47.1012 25.1666 47.1222 25.1599 47.1436 25.1606H47.747C47.7573 25.1606 47.7675 25.163 47.7768 25.1675C47.7861 25.172 47.7943 25.1785 47.8008 25.1866C47.8072 25.1947 47.8117 25.2041 47.814 25.2142C47.8163 25.2243 47.8163 25.2348 47.814 25.2449C47.8006 25.3023 47.7872 25.356 47.7738 25.4077C47.6284 26.0176 47.2773 26.5588 46.7796 26.9401C46.2752 27.3262 45.6543 27.5289 45.0192 27.5148C44.3258 27.5148 43.7799 27.3232 43.3815 26.9401C43.1807 26.7396 43.0228 26.5004 42.9174 26.2369C42.8121 25.9735 42.7614 25.6913 42.7685 25.4077C42.7832 24.8271 42.8292 24.2478 42.9064 23.6722C42.9766 23.0885 43.0789 22.5091 43.2129 21.9367C43.3613 21.3281 43.7118 20.7879 44.2071 20.4043Z" fill="#4D4D4E"/>
<path fill-rule="evenodd" clip-rule="evenodd" d="M41.0408 20.3966C40.5948 19.997 40.0086 19.7904 39.4106 19.822C38.7763 19.8074 38.156 20.0096 37.6521 20.3951C37.1482 20.7806 36.7908 21.3264 36.6388 21.9425C36.5029 22.5144 36.4012 23.0939 36.3343 23.678C36.2452 24.2522 36.1991 24.8323 36.1963 25.4134C36.1899 25.6968 36.2407 25.9786 36.3457 26.2419C36.4507 26.5053 36.6077 26.7447 36.8074 26.9459C37.2058 27.329 37.7518 27.5205 38.4452 27.5205C39.0803 27.5349 39.7013 27.3322 40.2056 26.9459C40.7031 26.5641 41.0547 26.0232 41.2017 25.4134C41.2151 25.3617 41.2285 25.3081 41.2419 25.2506C41.2442 25.2405 41.2442 25.2301 41.2419 25.22C41.2396 25.2099 41.2351 25.2005 41.2286 25.1924C41.2222 25.1843 41.214 25.1777 41.2047 25.1732C41.1954 25.1687 41.1852 25.1664 41.1748 25.1663H40.5657C40.5444 25.166 40.5236 25.1728 40.5066 25.1857C40.4896 25.1985 40.4774 25.2166 40.4718 25.2372V25.2659C40.3765 25.7184 40.1282 26.1243 39.7688 26.4153C39.4156 26.6961 38.9749 26.8439 38.5237 26.8329C38.3183 26.8465 38.1124 26.8163 37.9196 26.7443C37.7267 26.6723 37.5514 26.5602 37.4052 26.4152C37.2591 26.2703 37.1454 26.096 37.0717 25.9038C36.998 25.7116 36.966 25.5059 36.9779 25.3004C36.9814 25.0321 36.9999 24.7641 37.0334 24.4978L41.4564 23.1282C41.497 23.1194 41.5332 23.0968 41.559 23.0644C41.5849 23.0319 41.5987 22.9915 41.5982 22.95C41.625 22.7202 41.6422 22.3313 41.6461 21.9329C41.6538 21.6493 41.6042 21.367 41.5002 21.103C41.3962 20.839 41.2399 20.5987 41.0408 20.3966ZM40.8664 22.4635C40.8657 22.4848 40.8583 22.5053 40.8452 22.5222C40.8321 22.539 40.8141 22.5513 40.7937 22.5574L37.1273 23.6894V23.6741C37.2192 22.9635 37.3016 22.4328 37.3725 22.088C37.4686 21.6359 37.7167 21.2302 38.0755 20.9387C38.4266 20.6555 38.8657 20.5037 39.3168 20.5096C39.5238 20.5014 39.7304 20.5359 39.9235 20.611C40.1167 20.6862 40.2922 20.8003 40.4393 20.9464C40.8913 21.3889 40.8933 21.862 40.8664 22.4635Z" fill="#4D4D4E"/>
<path d="M34.5861 26.6052C34.5644 26.6044 34.5429 26.6096 34.524 26.6202C34.2099 26.7677 33.6103 26.9095 33.2923 26.6413C33.0641 26.4205 33.1117 26.0264 33.1651 25.5847C33.1673 25.5667 33.1695 25.5485 33.1717 25.5303L33.708 21.2146H35.2404C35.284 21.2174 35.3273 21.2052 35.363 21.1801C35.3929 21.1493 35.4094 21.108 35.409 21.0651L35.4512 20.7242C35.4569 20.6303 35.4167 20.5767 35.3286 20.5767H33.7961L34.0873 18.2014C34.1007 18.1171 34.0777 18.0539 33.9647 18.0539H33.4916C33.4707 18.0518 33.4495 18.054 33.4295 18.0604C33.4095 18.0668 33.391 18.0772 33.3752 18.091C33.3594 18.1049 33.3466 18.1218 33.3376 18.1408C33.3287 18.1598 33.3237 18.1804 33.323 18.2014L33.1084 19.8775L33.0165 20.6341L32.369 25.8942C32.2886 26.5858 32.4323 27.1393 32.9935 27.396C33.4895 27.5779 34.0352 27.5704 34.5259 27.375C34.5559 27.3633 34.5822 27.3438 34.602 27.3185C34.6219 27.2933 34.6347 27.2631 34.639 27.2313L34.7003 26.7352C34.7023 26.7136 34.6984 26.6919 34.689 26.6723C34.6796 26.6528 34.6651 26.6362 34.6469 26.6244C34.6288 26.6125 34.6077 26.6059 34.5861 26.6052Z" fill="#4D4D4E"/>
</svg>

<svg width="72" height="45" fill="none" xmlns="http://www.w3.org/2000/svg"><path d="M15.792 14.625a7.919 7.919 0 100 15.837 7.919 7.919 0 000-15.837zm.128 8.18l-.823 2.779h4.405a.226.226 0 01.217.29l-.383 1.319a.303.303 0 01-.291.218h-6.73l1.138-3.842-1.258.383.277-.899 1.26-.383 1.598-5.398a.3.3 0 01.29-.22h1.704a.226.226 0 01.219.287l-1.341 4.565 1.258-.383-.27.914-1.27.37z" fill="#A5A8A9"/><path d="M30.843 16.965a.603.603 0 11.12 1.2.603.603 0 01-.12-1.2zM27.797 17.03h.494c.096 0 .153.041.138.152l-1.285 10.086a.148.148 0 01-.17.147h-.49c-.101 0-.134-.052-.122-.147l1.268-10.09a.158.158 0 01.167-.149zM30.373 19.937h.489c.107 0 .14.052.136.151l-.903 7.18a.154.154 0 01-.113.144.155.155 0 01-.065.003h-.49c-.092 0-.15-.05-.138-.147l.915-7.184a.153.153 0 01.17-.147z" fill="#4D4D4E"/><path fill-rule="evenodd" clip-rule="evenodd" d="M52.383 19.818a2.79 2.79 0 00-2.772 2.12 14.578 14.578 0 00-.305 1.736 15.414 15.414 0 00-.137 1.736 2.106 2.106 0 00.61 1.532c.399.383.945.575 1.638.575a2.79 2.79 0 001.76-.575c.498-.382.85-.923.997-1.532.138-.572.24-1.151.304-1.736.078-.58.124-1.165.136-1.75a2.017 2.017 0 00-.603-1.533 2.265 2.265 0 00-1.628-.573zm1.385 3.159c-.046.366-.075.6-.085.697-.092.741-.174 1.272-.245 1.588a2.013 2.013 0 01-.703 1.15c-.35.284-.79.435-1.241.428a1.45 1.45 0 01-1.546-1.532c.004-.308.027-.615.069-.92.046-.365.075-.597.084-.697.092-.71.175-1.24.245-1.586.097-.452.345-.858.704-1.149.35-.283.79-.435 1.24-.43a1.451 1.451 0 011.547 1.533 7.593 7.593 0 01-.07.918z" fill="#4D4D4E"/><path d="M56.934 19.937h.489c.095 0 .136.052.122.147l-.902 7.184a.153.153 0 01-.053.11.155.155 0 01-.116.037h-.49c-.092 0-.151-.044-.138-.147l.92-7.184a.159.159 0 01.168-.147zM63.617 20.36c-.337-.352-.81-.526-1.423-.526a2.62 2.62 0 00-1.101.23 2.242 2.242 0 00-.859.689c-.04.038-.06.029-.06-.03l.076-.639c.011-.09-.029-.147-.123-.147h-.488a.156.156 0 00-.169.147l-.902 7.184c-.012.093.021.147.123.147h.49a.158.158 0 00.153-.087.158.158 0 00.015-.06l.658-5.147c.093-.447.33-.85.674-1.15a1.799 1.799 0 011.212-.44 1.356 1.356 0 011.037.415c.268.303.406.7.383 1.104.002.11-.003.219-.016.327l-.626 4.89a.119.119 0 00.023.104.144.144 0 00.115.044h.488a.156.156 0 00.169-.147l.628-5.013c.021-.192.03-.347.03-.445a1.998 1.998 0 00-.507-1.45zM57.773 17.033a.603.603 0 10-.56 1.069.603.603 0 00.56-1.07zM44.207 20.404a2.798 2.798 0 011.776-.586 2.26 2.26 0 011.63.565 2.012 2.012 0 01.605 1.533v.174a.087.087 0 01-.026.063.088.088 0 01-.064.025h-.575a.113.113 0 01-.112-.117v-.011a1.451 1.451 0 00-1.548-1.533 1.93 1.93 0 00-1.24.43 2.014 2.014 0 00-.695 1.156c-.073.345-.153.876-.245 1.586-.012.1-.046.393-.084.698a7.584 7.584 0 00-.07.92 1.45 1.45 0 001.546 1.532c.451.007.89-.145 1.24-.43.36-.29.608-.696.705-1.149v-.029a.094.094 0 01.094-.07h.603a.069.069 0 01.067.053.07.07 0 010 .03 6.856 6.856 0 01-.04.164 2.727 2.727 0 01-.994 1.532 2.794 2.794 0 01-1.76.575c-.694 0-1.24-.192-1.639-.575a2.091 2.091 0 01-.612-1.532c.014-.58.06-1.16.137-1.736.07-.584.173-1.163.307-1.735a2.767 2.767 0 01.994-1.533z" fill="#4D4D4E"/><path fill-rule="evenodd" clip-rule="evenodd" d="M41.04 20.397a2.264 2.264 0 00-1.63-.575 2.789 2.789 0 00-2.771 2.12 14.783 14.783 0 00-.305 1.736c-.089.574-.135 1.154-.138 1.735a2.108 2.108 0 00.611 1.533c.399.383.945.574 1.638.574a2.79 2.79 0 001.76-.574c.498-.382.85-.923.997-1.533l.04-.162a.069.069 0 00-.067-.085h-.61a.096.096 0 00-.093.071v.029a2.013 2.013 0 01-.703 1.15c-.353.28-.794.428-1.245.417a1.452 1.452 0 01-1.546-1.533c.003-.268.022-.536.055-.802l4.423-1.37a.18.18 0 00.142-.178c.027-.23.044-.619.048-1.017a2.108 2.108 0 00-.605-1.536zm-.174 2.067a.101.101 0 01-.072.093l-3.667 1.132v-.015c.092-.71.175-1.241.245-1.586.097-.452.345-.858.703-1.15.352-.282.79-.434 1.242-.428a1.51 1.51 0 011.122.436c.452.443.454.916.427 1.517z" fill="#4D4D4E"/><path d="M34.586 26.605a.118.118 0 00-.062.015c-.314.148-.914.29-1.232.021-.228-.22-.18-.615-.127-1.056l.007-.055.536-4.315h1.532a.192.192 0 00.123-.035.163.163 0 00.046-.115l.042-.34c.006-.095-.034-.148-.122-.148h-1.533l.291-2.376c.014-.084-.01-.147-.122-.147h-.473a.154.154 0 00-.169.147l-.215 1.677-.091.756-.648 5.26c-.08.692.063 1.245.624 1.502a2.146 2.146 0 001.533-.021.18.18 0 00.113-.144l.061-.496a.12.12 0 00-.053-.11.118.118 0 00-.06-.02z" fill="#4D4D4E"/></svg>
